X:2
T:Lehrer-Polka  G 2+
%%MIDI program 21
R:polka
M:2/4
L:1/16
K:G %%MIDI gchordon
"C"gecg e2c2 | "G"dBGd B2G2 | "D7"FGcF d3F | "G"GBdGd4 | "C"gecg e2c2 | "G"dBGd B2G2 | "D7"FGcF d3F | "G"G2B2 G2z2:: 
[L:1/8] "G"D>E D>E | DBB2 | "D7"d>^c dF | "G"G/2A/2B/2A/2 GG | D>E D>E | DBB2 | "D7"d>e dF | "G"GB Gz |] 
% pk01000

